; generated by Slic3r 1.2.9 on 2018-02-12 at 18:11:08

; external perimeters extrusion width = 0.50mm
; perimeters extrusion width = 0.58mm
; infill extrusion width = 0.58mm
; solid infill extrusion width = 0.58mm
; top infill extrusion width = 0.58mm

M107
M104 S205 ; set temperature
G28 ; home all axes
G1 Z5 F5000 ; lift nozzle

M109 S205 ; wait for temperature to be reached
G21 ; set units to millimeters
G90 ; use absolute coordinates
M82 ; use absolute distances for extrusion
G92 E0
G1 Z0.500 F7800.000
G1 E-2.00000 F2400.00000
G92 E0
G1 X88.006 Y88.111 F7800.000
G1 E2.00000 F2400.00000
G1 X88.695 Y87.454 E2.06010 F1800.000
G1 X89.191 Y87.024 E2.10152
G1 X89.939 Y86.436 E2.16161
G1 X90.473 Y86.056 E2.20303
G1 X91.274 Y85.541 E2.26312
G1 X91.842 Y85.213 E2.30454
G1 X92.687 Y84.777 E2.36463
G1 X93.284 Y84.505 E2.40603
G1 X94.168 Y84.151 E2.46614
G1 X94.787 Y83.936 E2.50756
G1 X95.701 Y83.668 E2.56766
G1 X96.338 Y83.514 E2.60908
G1 X97.272 Y83.334 E2.66917
G1 X97.922 Y83.240 E2.71058
G1 X98.869 Y83.150 E2.77068
G1 X99.524 Y83.119 E2.81210
G1 X100.476 Y83.119 E2.87219
G1 X101.131 Y83.150 E2.91361
G1 X102.078 Y83.240 E2.97371 F1800.000
G1 X102.728 Y83.334 E3.01512
G1 X103.662 Y83.514 E3.07522
G1 X104.299 Y83.668 E3.11663
G1 X105.213 Y83.936 E3.17672
G1 X105.832 Y84.151 E3.21814
G1 X106.716 Y84.505 E3.27825
G1 X107.312 Y84.777 E3.31964
G1 X108.158 Y85.213 E3.37974
G1 X108.726 Y85.541 E3.42116
G1 X109.527 Y86.056 E3.48126
G1 X110.061 Y86.436 E3.52268
G1 X110.809 Y87.024 E3.58277
G1 X111.305 Y87.454 E3.62419
G1 X111.994 Y88.111 E3.68428
G1 X112.446 Y88.585 E3.72569
G1 X113.070 Y89.305 E3.78579
G1 X113.475 Y89.820 E3.82721
G1 X114.027 Y90.595 E3.88730
G1 X114.382 Y91.147 E3.92871
G1 X114.858 Y91.971 E3.98881
G1 X115.158 Y92.554 E4.03023
G1 X115.554 Y93.420 E4.09032
G1 X115.797 Y94.029 E4.13174
G1 X116.109 Y94.928 E4.19183
G1 X116.293 Y95.558 E4.23325
G1 X116.518 Y96.483 E4.29335
G1 X116.642 Y97.127 E4.33476
G1 X116.777 Y98.068 E4.39486
G1 X116.840 Y98.721 E4.43628
G1 X116.885 Y99.672 E4.49637
G1 X116.885 Y100.328 E4.53779
G1 X116.840 Y101.279 E4.59788
G1 X116.777 Y101.932 E4.63930
G1 X116.642 Y102.873 E4.69939
G1 X116.518 Y103.518 E4.74081
G1 X116.293 Y104.442 E4.80090
G1 X116.109 Y105.072 E4.84232
G1 X115.797 Y105.971 E4.90241
G1 X115.554 Y106.580 E4.94383
G1 X115.158 Y107.446 E5.00395
G1 X114.858 Y108.029 E5.04534
G1 X114.382 Y108.853 E5.10543
G1 X114.027 Y109.404 E5.14685
G1 X113.475 Y110.180 E5.20695
G1 X113.070 Y110.695 E5.24836
G1 X112.446 Y111.415 E5.30846
G1 X111.977 Y111.906 E5.35137
G1 X111.305 Y112.546 E5.40997
G1 X110.809 Y112.976 E5.45138
G1 X110.061 Y113.564 E5.51148
G1 X109.527 Y113.944 E5.55289
G1 X108.726 Y114.459 E5.61299
G1 X108.158 Y114.787 E5.65441
G1 X107.313 Y115.223 E5.71450
G1 X106.716 Y115.495 E5.75592
G1 X105.832 Y115.849 E5.81603
G1 X105.213 Y116.063 E5.85743
G1 X104.299 Y116.332 E5.91753
G1 X103.662 Y116.486 E5.95894
G1 X102.728 Y116.666 E6.01903
G1 X102.078 Y116.760 E6.06044
G1 X101.131 Y116.850 E6.12054
G1 X100.476 Y116.881 E6.16196
G1 X99.524 Y116.881 E6.22206
G1 X98.869 Y116.850 E6.26347
G1 X97.922 Y116.760 E6.32357
G1 X97.272 Y116.666 E6.36498
G1 X96.338 Y116.486 E6.42508
G1 X95.701 Y116.332 E6.46649
G1 X94.787 Y116.064 E6.52659
G1 X94.145 Y115.840 E6.56951
G1 X93.284 Y115.495 E6.62810
G1 X92.687 Y115.223 E6.66952
G1 X91.842 Y114.787 E6.72961
G1 X91.274 Y114.459 E6.77103
G1 X90.473 Y113.944 E6.83112
G1 X89.939 Y113.564 E6.87254
G1 X89.191 Y112.976 E6.93263
G1 X88.695 Y112.546 E6.97405
G1 X88.006 Y111.889 E7.03414
G1 X87.554 Y111.415 E7.07556
G1 X86.930 Y110.695 E7.13565
G1 X86.525 Y110.180 E7.17707
G1 X85.973 Y109.405 E7.23716
G1 X85.618 Y108.853 E7.27858
G1 X85.142 Y108.029 E7.33868
G1 X84.842 Y107.446 E7.38010
G1 X84.446 Y106.580 E7.44019
G1 X84.203 Y105.971 E7.48158
G1 X83.891 Y105.072 E7.54170
G1 X83.707 Y104.442 E7.58312
G1 X83.482 Y103.517 E7.64322
G1 X83.358 Y102.873 E7.68463
G1 X83.223 Y101.931 E7.74472
G1 X83.160 Y101.279 E7.78614
G1 X83.115 Y100.328 E7.84623
G1 X83.115 Y99.672 E7.88765
G1 X83.160 Y98.721 E7.94774
G1 X83.223 Y98.069 E7.98915
G1 X83.358 Y97.127 E8.04925
G1 X83.488 Y96.460 E8.09216
G1 X83.707 Y95.558 E8.15076
G1 X83.891 Y94.928 E8.19217
G1 X84.203 Y94.029 E8.25228
G1 X84.446 Y93.420 E8.29369
G1 X84.842 Y92.554 E8.35379
G1 X85.142 Y91.971 E8.39521
G1 X85.618 Y91.147 E8.45530
G1 X85.973 Y90.596 E8.49669
G1 X86.525 Y89.820 E8.55681
G1 X86.930 Y89.305 E8.59823
G1 X87.554 Y88.585 E8.65832
G1 X87.954 Y88.165 E8.69499
G1 E6.69499 F2400.00000
G92 E0
G1 X105.581 Y105.322 F7800.000
G1 E2.00000 F2400.00000
G1 X105.050 Y105.828 E2.04634 F1800.000
G1 X104.473 Y106.282 E2.09269
G1 X103.856 Y106.679 E2.13903
G1 X103.204 Y107.015 E2.18537
G1 X102.522 Y107.288 E2.23171
G1 X101.818 Y107.495 E2.27806
G1 X101.098 Y107.634 E2.32440
G1 X100.367 Y107.703 E2.37074
G1 X99.633 Y107.703 E2.41709
G1 X98.902 Y107.634 E2.46343
G1 X98.182 Y107.495 E2.50977
G1 X97.478 Y107.288 E2.55611
G1 X96.796 Y107.015 E2.60246
G1 X96.144 Y106.679 E2.64880
G1 X95.527 Y106.282 E2.69514
G1 X94.950 Y105.828 E2.74148
G1 X94.419 Y105.322 E2.78783
G1 X93.938 Y104.767 E2.83417
G1 X93.512 Y104.169 E2.88051
G1 X93.145 Y103.534 E2.92686
G1 X92.840 Y102.866 E2.97320
G1 X92.600 Y102.173 E3.01954
G1 X92.427 Y101.460 E3.06588
G1 X92.323 Y100.733 E3.11223
G1 X92.288 Y100.000 E3.15857
G1 X92.323 Y99.267 E3.20491
G1 X92.427 Y98.540 E3.25126
G1 X92.600 Y97.827 E3.29760
G1 X92.840 Y97.134 E3.34394
G1 X93.145 Y96.466 E3.39028
G1 X93.512 Y95.831 E3.43663
G1 X93.938 Y95.233 E3.48297
G1 X94.419 Y94.678 E3.52931
G1 X94.950 Y94.172 E3.57566
G1 X95.527 Y93.718 E3.62200
G1 X96.144 Y93.321 E3.66834
G1 X96.796 Y92.985 E3.71468
G1 X97.478 Y92.712 E3.76103
G1 X98.182 Y92.505 E3.80737
G1 X98.902 Y92.366 E3.85371
G1 X99.633 Y92.297 E3.90005
G1 X100.367 Y92.297 E3.94640
G1 X101.076 Y92.364 E3.99141
G1 X101.821 Y92.506 E4.03924 F1800.000
G1 X102.522 Y92.712 E4.08542
G1 X103.204 Y92.985 E4.13176
G1 X103.856 Y93.321 E4.17810
G1 X104.473 Y93.718 E4.22445
G1 X105.050 Y94.172 E4.27079
G1 X105.581 Y94.678 E4.31713
G1 X106.062 Y95.233 E4.36348
G1 X106.488 Y95.831 E4.40982
G1 X106.855 Y96.466 E4.45616
G1 X107.160 Y97.134 E4.50250
G1 X107.400 Y97.827 E4.54885
G1 X107.573 Y98.540 E4.59519
G1 X107.677 Y99.267 E4.64153
G1 X107.712 Y100.000 E4.68788
G1 X107.677 Y100.733 E4.73422
G1 X107.573 Y101.460 E4.78056
G1 X107.400 Y102.173 E4.82690
G1 X107.160 Y102.866 E4.87325
G1 X106.855 Y103.534 E4.91959
G1 X106.488 Y104.169 E4.96593
G1 X106.062 Y104.767 E5.01228
G1 X105.631 Y105.265 E5.05388
G1 X106.197 Y105.968 F7800.000
G1 X105.636 Y106.504 E5.10291 F1800.000
G1 X104.992 Y107.010 E5.15462
G1 X104.303 Y107.453 E5.20634
G1 X103.575 Y107.828 E5.25805
G1 X102.815 Y108.132 E5.30976
G1 X102.029 Y108.363 E5.36148
G1 X101.225 Y108.518 E5.41319
G1 X100.409 Y108.596 E5.46490
G1 X99.591 Y108.596 E5.51662
G1 X98.775 Y108.518 E5.56833
G1 X97.971 Y108.363 E5.62004
G1 X97.185 Y108.132 E5.67176
G1 X96.425 Y107.828 E5.72347
G1 X95.697 Y107.453 E5.77518
G1 X95.008 Y107.010 E5.82690
G1 X94.364 Y106.504 E5.87861
G1 X93.772 Y105.939 E5.93032
G1 X93.235 Y105.320 E5.98204
G1 X92.760 Y104.653 E6.03375
G1 X92.351 Y103.943 E6.08546
G1 X92.011 Y103.198 E6.13718
G1 X91.743 Y102.425 E6.18889
G1 X91.550 Y101.629 E6.24060
G1 X91.433 Y100.818 E6.29231
G1 X91.394 Y100.000 E6.34403
G1 X91.433 Y99.182 E6.39574
G1 X91.550 Y98.371 E6.44745
G1 X91.743 Y97.575 E6.49917
G1 X92.011 Y96.802 E6.55088
G1 X92.351 Y96.057 E6.60259
G1 X92.760 Y95.347 E6.65431
G1 X93.235 Y94.680 E6.70602
G1 X93.772 Y94.061 E6.75773
G1 X94.364 Y93.496 E6.80945
G1 X95.008 Y92.990 E6.86116
G1 X95.697 Y92.547 E6.91287
G1 X96.425 Y92.172 E6.96459
G1 X97.185 Y91.868 E7.01630
G1 X97.971 Y91.637 E7.06801
G1 X98.775 Y91.482 E7.11973
G1 X99.591 Y91.404 E7.17144
G1 X100.409 Y91.404 E7.22315
G1 X101.203 Y91.480 E7.27347
G1 X102.030 Y91.637 E7.32668 F1800.000
G1 X102.815 Y91.868 E7.37829
G1 X103.575 Y92.172 E7.43000
G1 X104.303 Y92.547 E7.48171
G1 X104.992 Y92.990 E7.53343
G1 X105.636 Y93.496 E7.58514
G1 X106.228 Y94.061 E7.63685
G1 X106.765 Y94.680 E7.68857
G1 X107.240 Y95.347 E7.74028
G1 X107.649 Y96.057 E7.79199
G1 X107.989 Y96.802 E7.84371
G1 X108.257 Y97.575 E7.89542
G1 X108.450 Y98.371 E7.94713
G1 X108.567 Y99.182 E7.99885
G1 X108.606 Y100.000 E8.05056
G1 X108.567 Y100.818 E8.10227
G1 X108.450 Y101.629 E8.15399
G1 X108.257 Y102.425 E8.20570
G1 X107.989 Y103.198 E8.25741
G1 X107.649 Y103.943 E8.30913
G1 X107.240 Y104.653 E8.36084
G1 X106.765 Y105.320 E8.41255
G1 X106.250 Y105.914 E8.46221
G1 X106.814 Y106.614 F7800.000
G1 X106.221 Y107.179 E8.51393 F1800.000
G1 X105.510 Y107.738 E8.57101
G1 X104.750 Y108.227 E8.62810
G1 X103.946 Y108.641 E8.68518
G1 X103.107 Y108.977 E8.74226
G1 X102.240 Y109.232 E8.79935
G1 X101.352 Y109.403 E8.85643
G1 X100.452 Y109.489 E8.91351
G1 X99.548 Y109.489 E8.97060
G1 X98.648 Y109.403 E9.02768
G1 X97.760 Y109.232 E9.08477
G1 X96.893 Y108.977 E9.14185
G1 X96.054 Y108.641 E9.19893
G1 X95.250 Y108.227 E9.25602
G1 X94.490 Y107.738 E9.31310
G1 X93.779 Y107.179 E9.37018
G1 X93.125 Y106.555 E9.42727
G1 X92.533 Y105.872 E9.48435
G1 X92.009 Y105.136 E9.54144
G1 X91.557 Y104.353 E9.59852
G1 X91.181 Y103.531 E9.65560
G1 X90.885 Y102.676 E9.71269
G1 X90.672 Y101.798 E9.76977
G1 X90.544 Y100.903 E9.82685
G1 X90.501 Y100.000 E9.88394
G1 X90.544 Y99.097 E9.94102
G1 X90.672 Y98.202 E9.99810
G1 X90.885 Y97.324 E10.05519
G1 X91.181 Y96.469 E10.11227
G1 X91.557 Y95.647 E10.16936
G1 X92.009 Y94.864 E10.22644
G1 X92.533 Y94.128 E10.28352
G1 X93.125 Y93.445 E10.34061
G1 X93.779 Y92.821 E10.39769
G1 X94.490 Y92.262 E10.45477
G1 X95.250 Y91.773 E10.51186
G1 X96.054 Y91.359 E10.56894
G1 X96.893 Y91.023 E10.62603
G1 X97.760 Y90.768 E10.68311
G1 X98.648 Y90.597 E10.74019
G1 X99.548 Y90.511 E10.79728
G1 X100.452 Y90.511 E10.85436
G1 X101.329 Y90.595 E10.90998
G1 X102.240 Y90.769 E10.96856 F1800.000
G1 X103.107 Y91.023 E11.02561
G1 X103.946 Y91.359 E11.08269
G1 X104.750 Y91.773 E11.13977
G1 X105.510 Y92.262 E11.19686
G1 X106.221 Y92.821 E11.25394
G1 X106.875 Y93.445 E11.31102
G1 X107.467 Y94.128 E11.36811
G1 X107.991 Y94.864 E11.42519
G1 X108.443 Y95.647 E11.48228
G1 X108.819 Y96.469 E11.53936
G1 X109.115 Y97.324 E11.59644
G1 X109.328 Y98.202 E11.65353
G1 X109.456 Y99.097 E11.71061
G1 X109.499 Y100.000 E11.76769
G1 X109.456 Y100.903 E11.82478
G1 X109.328 Y101.798 E11.88186
G1 X109.115 Y102.676 E11.93894
G1 X108.819 Y103.531 E11.99603
G1 X108.443 Y104.353 E12.05311
G1 X107.991 Y105.136 E12.11020
G1 X107.467 Y105.872 E12.16728
G1 X106.868 Y106.562 E12.22500
G1 X106.330 Y106.487 F7800.000
G1 X105.419 Y95.590 F7800.000
G1 X104.349 Y94.519 E12.32425 F1800.000
G1 X101.595 Y93.076 F7800.000
G1 X106.923 Y98.404 E12.81818 F1800.000
G1 X107.150 Y99.942 E12.92009
G1 X100.054 Y92.846 E13.57789
G1 X98.809 Y92.911 E13.65965
G1 X107.082 Y101.185 E14.42666
G1 X106.844 Y102.257 E14.49865
G1 X97.746 Y93.158 E15.34209
G1 X96.802 Y93.526 E15.40844
G1 X106.473 Y103.196 E16.30492
G1 X106.001 Y104.035 E16.36800
G1 X95.968 Y94.002 E17.29813
G1 X95.224 Y94.568 E17.35943
G1 X105.431 Y104.776 E18.30569
G1 X104.776 Y105.432 E18.36644
G1 X94.569 Y95.224 E19.31269
G1 X93.999 Y95.965 E19.37395
G1 X104.032 Y105.998 E20.30408
G1 X103.198 Y106.474 E20.36707
G1 X93.527 Y96.804 E21.26354
G1 X93.156 Y97.743 E21.32976
G1 X102.254 Y106.842 E22.17320
G1 X101.191 Y107.089 E22.24476
G1 X92.918 Y98.815 E23.01177
G1 X92.850 Y100.058 E23.09337
G1 X99.946 Y107.154 E23.75117
G1 X98.405 Y106.924 E23.85326
G1 X93.077 Y101.596 E24.34719
G1 X94.581 Y104.410 F7800.000
G1 X95.651 Y105.481 E24.44645 F1800.000
M104 S200 ; set temperature
G1 Z0.900 F7800.000
G1 X106.335 Y106.112 F7800.000
G1 X105.766 Y106.655 E24.46828 F3600.000
G1 X105.108 Y107.173 E24.49156
G1 X104.403 Y107.626 E24.51483
G1 X103.658 Y108.010 E24.53811
G1 X102.880 Y108.321 E24.56138
G1 X102.076 Y108.557 E24.58466
G1 X101.253 Y108.716 E24.60794
G1 X100.419 Y108.795 E24.63121
G1 X99.581 Y108.795 E24.65449
G1 X98.747 Y108.716 E24.67776
G1 X97.924 Y108.557 E24.70104
G1 X97.120 Y108.321 E24.72432
G1 X96.342 Y108.010 E24.74759
G1 X95.597 Y107.626 E24.77087
G1 X94.892 Y107.173 E24.79415
G1 X94.234 Y106.655 E24.81742
G1 X93.627 Y106.076 E24.84070
G1 X93.079 Y105.443 E24.86397
G1 X92.593 Y104.760 E24.88725
G1 X92.174 Y104.035 E24.91053
G1 X91.825 Y103.273 E24.93380
G1 X91.551 Y102.481 E24.95708
G1 X91.354 Y101.666 E24.98036
G1 X91.235 Y100.837 E25.00363
G1 X91.195 Y100.000 E25.02691
G1 X91.235 Y99.163 E25.05018
G1 X91.354 Y98.334 E25.07346
G1 X91.551 Y97.519 E25.09674
G1 X91.825 Y96.727 E25.12001
G1 X92.174 Y95.965 E25.14329
G1 X92.593 Y95.240 E25.16656
G1 X93.079 Y94.557 E25.18984
G1 X93.627 Y93.924 E25.21312
G1 X94.234 Y93.345 E25.23639
G1 X94.892 Y92.827 E25.25967
G1 X95.597 Y92.374 E25.28295
G1 X96.342 Y91.990 E25.30622
G1 X97.120 Y91.679 E25.32950
G1 X97.924 Y91.443 E25.35277
G1 X98.747 Y91.284 E25.37605
G1 X99.581 Y91.205 E25.39933
G1 X100.419 Y91.205 E25.42260
G1 X101.242 Y91.283 E25.44557
G1 X102.077 Y91.443 E25.46917 F3600.000
G1 X102.880 Y91.679 E25.49243
G1 X103.658 Y91.990 E25.51571
G1 X104.403 Y92.374 E25.53898
G1 X105.108 Y92.827 E25.56226
G1 X105.766 Y93.345 E25.58553
G1 X106.373 Y93.924 E25.60881
G1 X106.921 Y94.557 E25.63209
G1 X107.407 Y95.240 E25.65536
G1 X107.826 Y95.965 E25.67864
G1 X108.175 Y96.727 E25.70191
G1 X108.449 Y97.519 E25.72519
G1 X108.646 Y98.334 E25.74847
G1 X108.765 Y99.163 E25.77174
G1 X108.805 Y100.000 E25.79502
G1 X108.765 Y100.837 E25.81830
G1 X108.646 Y101.666 E25.84157
G1 X108.449 Y102.481 E25.86485
G1 X108.175 Y103.273 E25.88812
G1 X107.826 Y104.035 E25.91140
G1 X107.407 Y104.760 E25.93468
G1 X106.921 Y105.443 E25.95795
G1 X106.388 Y106.059 E25.98059
G1 X106.674 Y106.467 F7800.000
G1 X106.088 Y107.026 E26.00307 F3600.000
G1 X105.393 Y107.573 E26.02765
G1 X104.648 Y108.051 E26.05222
G1 X103.862 Y108.457 E26.07680
G1 X103.041 Y108.785 E26.10137
G1 X102.192 Y109.035 E26.12595
G1 X101.323 Y109.202 E26.15052
G1 X100.442 Y109.286 E26.17510
G1 X99.558 Y109.286 E26.19967
G1 X98.677 Y109.202 E26.22425
G1 X97.808 Y109.035 E26.24882
G1 X96.959 Y108.785 E26.27340
G1 X96.138 Y108.457 E26.29797
G1 X95.352 Y108.051 E26.32255
G1 X94.607 Y107.573 E26.34712
G1 X93.912 Y107.026 E26.37170
G1 X93.272 Y106.415 E26.39627
G1 X92.692 Y105.747 E26.42085
G1 X92.179 Y105.026 E26.44543
G1 X91.737 Y104.260 E26.47000
G1 X91.369 Y103.455 E26.49458
G1 X91.080 Y102.619 E26.51915
G1 X90.871 Y101.759 E26.54373
G1 X90.745 Y100.884 E26.56830
G1 X90.703 Y100.000 E26.59288
G1 X90.745 Y99.116 E26.61745
G1 X90.871 Y98.241 E26.64203
G1 X91.080 Y97.381 E26.66660
G1 X91.369 Y96.545 E26.69118
G1 X91.737 Y95.740 E26.71575
G1 X92.179 Y94.974 E26.74033
G1 X92.692 Y94.253 E26.76490
G1 X93.272 Y93.585 E26.78948
G1 X93.912 Y92.974 E26.81405
G1 X94.607 Y92.427 E26.83863
G1 X95.352 Y91.949 E26.86320
G1 X96.138 Y91.543 E26.88778
G1 X96.959 Y91.215 E26.91235
G1 X97.808 Y90.965 E26.93693
G1 X98.677 Y90.798 E26.96151
G1 X99.558 Y90.714 E26.98608
G1 X100.442 Y90.714 E27.01066
G1 X101.312 Y90.797 E27.03492
G1 X102.192 Y90.965 E27.05982 F3600.000
G1 X103.041 Y91.215 E27.08438
G1 X103.862 Y91.543 E27.10896
G1 X104.648 Y91.949 E27.13353
G1 X105.393 Y92.427 E27.15811
G1 X106.088 Y92.974 E27.18268
G1 X106.728 Y93.585 E27.20726
G1 X107.308 Y94.253 E27.23183
G1 X107.821 Y94.974 E27.25641
G1 X108.263 Y95.740 E27.28098
G1 X108.631 Y96.545 E27.30556
G1 X108.920 Y97.381 E27.33013
G1 X109.129 Y98.241 E27.35471
G1 X109.255 Y99.116 E27.37928
G1 X109.297 Y100.000 E27.40386
G1 X109.255 Y100.884 E27.42843
G1 X109.129 Y101.759 E27.45301
G1 X108.920 Y102.619 E27.47758
G1 X108.631 Y103.455 E27.50216
G1 X108.263 Y104.260 E27.52673
G1 X107.821 Y105.026 E27.55131
G1 X107.308 Y105.747 E27.57588
G1 X106.728 Y106.416 E27.60047
G1 X106.986 Y106.795 F7800.000
G1 X106.385 Y107.368 E27.61994 F1800.000
G1 X105.655 Y107.942 E27.64169
G1 X104.875 Y108.444 E27.66343
G1 X104.050 Y108.869 E27.68518
G1 X103.189 Y109.213 E27.70692
G1 X102.299 Y109.475 E27.72867
G1 X101.388 Y109.650 E27.75041
G1 X100.464 Y109.739 E27.77216
G1 X99.536 Y109.739 E27.79390
G1 X98.612 Y109.650 E27.81565
G1 X97.701 Y109.475 E27.83739
G1 X96.811 Y109.213 E27.85914
